X: 1
T: Riseing Sun
T: Longways for as many as will.
%R: jig
B: Daniel Wright "Wright's Compleat Collection of Celebrated Country Dances" 1740 p.1
S: http://library.efdss.org/cgi-bin/dancebooks.cgi
Z: 2014 John Chambers <jc:trillian.mit.edu>
N: Corrected 1st "quie" to "quite" in the dance description.
N: Both strains have 6 bars.
M: 6/4
L: 1/8
K: F
% - - - - - - - - - - - - - - - - - - - - - - - - -
fg |\
a3gf2 g2e2c2 | f3ed2 c2G2F2 | E4G2 G4A2 |\
B3c de f2d2B2 | c2A2F2 G2E2C2 | D2F2F2 F4 :|
|: GF |\
EFG2D2 c2G2B2 | A2F2f2 efg2G2 | D2G2G2 G4A2 |\
(B2d2)B2 (d2B2)d2 | g3a gf e3fg2 | a4f2 f4 |]
% - - - - - - - - - - - - - - - - - - - - - - - - -
%%begintext align
%% The 1st Man sets to the 2d Wo. & turns her .| 1st Wo. &
%% 2d Man do the same :| cross over & half figure .| then
%% Right & left quite round :#: 1st Man turns 3d Wo.
%% 1st Wo. 2d Man at the same time, & then turn Partners
%% .| 1st Man turns the 2d Wo. & 1st Wo. 3d Man at the
%% same time, then Partners :|. Cross corners .| Right
%% & Left with the 2d Cu. quite round.
%%endtext
% - - - - - - - - - - - - - - - - - - - - - - - - -
%%sep 2 4 300
